images/favicon.svg

<svg width="32" height="32" viewBox="0 0 32 32" fill="none" xmlns="http://www.w3.org/2000/svg">
<g clip-path="url(#clip0)">
<path fill-rule="evenodd" clip-rule="evenodd" d="M15.9999 30.8984L15.7143 30.6735C15.0279 30.1433 13.8911 29.301 13.4508 28.833C11.6683 26.9417 9.19256 24.2081 7.60193 20.3158C6.01243 16.4235 5.61618 12.5085 5.56538 9.91064C5.52023 7.62815 5.72004 5.82725 6.09371 3.64312L7.30954 4.52152C7.37502 4.569 8.92614 5.69612 10.8577 7.74685C12.3998 9.38269 14.4465 11.9003 15.9999 15.0703C17.5532 11.9003 19.6 9.38269 21.142 7.74685C23.0736 5.69725 24.6247 4.569 24.6902 4.52152L25.906 3.64312C26.2786 5.82725 26.4795 7.62815 26.4344 9.91064C26.3836 12.5097 25.9873 16.4235 24.3978 20.3169C22.8072 24.2093 20.3315 26.9428 18.5489 28.8341C18.1087 29.3022 16.9707 30.1444 16.2855 30.6746L15.9999 30.8984Z" fill="#00AA96"/>
<path fill-rule="evenodd" clip-rule="evenodd" d="M0.103859 11.4074L0 9.91064L1.38968 10.477C1.63353 10.5754 6.95181 12.7844 11.1028 17.6964C11.096 17.4669 11.0915 17.2374 11.0915 17.0046C11.0915 11.2288 12.9813 5.84421 16 1C19.0187 5.84421 20.9085 11.2288 20.9085 17.0046C20.9085 17.2374 20.904 17.4669 20.8972 17.6964C25.0482 12.7844 30.3665 10.5765 30.6103 10.477L32 9.91064L31.8961 11.4074C30.0842 38.206 1.91576 38.206 0.103859 11.4074Z" fill="url(#paint0_linear)"/>
<path fill-rule="evenodd" clip-rule="evenodd" d="M14.3539 25.0458C13.9724 25.0458 13.8188 25.1939 13.8188 25.558C13.8188 26.4454 14.7987 27.1655 16.0022 27.1655C17.2056 27.1655 18.1821 26.4443 18.1821 25.558C18.1821 25.1939 18.0274 25.0458 17.647 25.0458C17.4449 25.0526 17.2406 25.0741 17.0407 25.1069L17.0216 25.1103C16.6851 25.1657 16.3408 25.1973 16.001 25.203C15.6612 25.1973 15.3158 25.1657 14.9794 25.1103C14.7728 25.0752 14.5628 25.0526 14.3539 25.0458Z" fill="#00AA96"/>
<path d="M10.431 25.1442C11.4005 25.1442 12.1865 24.3571 12.1865 23.3863C12.1865 22.4154 11.4005 21.6283 10.431 21.6283C9.46148 21.6283 8.67554 22.4154 8.67554 23.3863C8.67554 24.3571 9.46148 25.1442 10.431 25.1442Z" fill="#00AA96"/>
<path d="M21.5665 25.1442C22.536 25.1442 23.3219 24.3571 23.3219 23.3863C23.3219 22.4154 22.536 21.6283 21.5665 21.6283C20.597 21.6283 19.811 22.4154 19.811 23.3863C19.811 24.3571 20.597 25.1442 21.5665 25.1442Z" fill="#00AA96"/>
</g>
<defs>
<linearGradient id="paint0_linear" x1="16" y1="-2.05064" x2="16" y2="31.5064" gradientUnits="userSpaceOnUse">
<stop stop-color="#00B59C"/>
<stop offset="1" stop-color="#8EF8AB"/>
</linearGradient>
<clipPath id="clip0">
<rect width="32" height="30.5067" fill="white" transform="translate(0 1)"/>
</clipPath>
</defs>
</svg>

<svg xmlns="http://www.w3.org/2000/svg" width="32" height="32" fill="none" xmlns:v="https://vecta.io/nano"><g clip-path="url(#B)"><g fill-rule="evenodd"><path d="M16 30.898l-.286-.225-2.264-1.841c-1.782-1.891-4.258-4.625-5.849-8.517S5.616 12.509 5.565 9.911c-.045-2.282.155-4.083.528-6.268l1.216.878c.065.047 1.617 1.175 3.548 3.225C12.4 9.383 14.447 11.9 16 15.07c1.553-3.17 3.6-5.688 5.142-7.323 1.932-2.05 3.483-3.178 3.548-3.225l1.216-.878c.373 2.184.574 3.985.528 6.268-.051 2.599-.447 6.513-2.037 10.406s-4.066 6.626-5.849 8.517c-.44.468-1.578 1.31-2.263 1.841l-.286.224z" fill="#00aa96"/><path d="M.104 11.407L0 9.911l1.39.566c.244.098 5.562 2.307 9.713 7.219l-.011-.692c0-5.776 1.89-11.16 4.909-16.005 3.019 4.844 4.909 10.229 4.909 16.005 0 .233-.005.462-.011.692 4.151-4.912 9.469-7.12 9.713-7.219L32 9.911l-.104 1.497c-1.812 26.799-29.98 26.799-31.792 0z" fill="url(#A)"/><g fill="#00aa96"><path d="M14.354 25.046c-.381 0-.535.148-.535.512 0 .887.98 1.608 2.183 1.608s2.18-.721 2.18-1.608c0-.364-.155-.512-.535-.512a4.75 4.75 0 0 0-.606.061l-.019.003a7.04 7.04 0 0 1-1.021.093 7.05 7.05 0 0 1-1.022-.093 4.65 4.65 0 0 0-.626-.064z"/></g></g><path d="M10.431 25.144c.97 0 1.756-.787 1.756-1.758s-.786-1.758-1.756-1.758-1.755.787-1.755 1.758.786 1.758 1.755 1.758zm11.136 0c.97 0 1.755-.787 1.755-1.758s-.786-1.758-1.755-1.758a1.76 1.76 0 0 0-1.756 1.758c0 .971.786 1.758 1.756 1.758z" fill="#00aa96"/></g><defs><linearGradient id="A" x1="16" y1="-2.051" x2="16" y2="31.506" gradientUnits="userSpaceOnUse"><stop stop-color="#00b59c"/><stop offset="1" stop-color="#8ef8ab"/></linearGradient><clipPath id="B"><path fill="#fff" transform="translate(0 1)" d="M0 0h32v30.507H0z"/></clipPath></defs></svg>
